X:782
T:Ascot Hornpipe. JNu.05
M:4/4
L:1/8
Q:160
S:James Nuttall MS,c1830,Rossendale,East Lancs.
R:Hornpipe
O:England
A:East Lancashire
N:Rebeamed from pairs of qu's to fours..CGP
Z:vmp.Manchester Morris Men
K:D
AB/c/|d2 D2 D2 de/f/|e2 E2 E2 ef|gfed cded|(3efe (3dcB A2 (3ABc|!
d2 D2 D2 (3def|e2 E2 E2 ef|gfed cdec|d2 f2 d2 ::!
AG|FAdA fdAF|GBeB geBG|FAdA fdAF|(3efe (3dcB (3ABA (3GFE|!
FAdA fdAF|GBeB geBG|FAdf FAce|d2 f2 d2:|]
